X: 140600
T: Norrie Leary
S: J.O'Brien: "Irish Folk Dance Music" 
Z: B.Black
M: 6/8
L: 1/8
R: jig 
K: G
G/A/ | BdB G2 D | EFG D2 d/c/ | BdB GAB |\
c3 A2 d/c/ |
BdB G2 D | EFG D2 d/c/ | EFG AFD |G3 G2 :|
A | Bdd dBd | BdB G2 A | Bdd dBG | c3 A3 |
Bdd dBd | BdB G2 D | EFG AFD | G3 G2 :|
